X:1
T:Title
%%score { ( 1 3 ) | ( 2 4 ) }
L:1/8
Q:1/4=100
M:6/8
K:G
V:1 treble nm="Grand Piano"
V:3 treble 
V:2 treble 
V:4 treble 
V:1
 BAG B[FA]B | d>ed B3 | GFG [FA]3 | [FA][EG][FA] [GB]3 | [GB][FA]B cBc | d>ed B3 | GFG [GB]3 | %7
w: Thomas~E.~Terry * * * * *|||||||
 [FB]2 [FA] G3 | ddd d2 d | [Ge]>[Ge][Ge] d3 | BBB B[FA]B |[M:9/16] dc/-c/B[FA]3/2 |[M:3/8] d z z | %13
w: ||||||
[M:3/4] BB BB- B/A/G |[M:7/8] [Gc]2 [Gd] [Ge]3 [Ge] | %15
w: ||
[M:3/4] z2 z d z2[Q:1/4=99][Q:1/4=97][Q:1/4=96][Q:1/4=94][Q:1/4=93][Q:1/4=91][Q:1/4=90][Q:1/4=88][Q:1/4=87][Q:1/4=85][Q:1/4=84][Q:1/4=82][Q:1/4=81][Q:1/4=79][Q:1/4=78][Q:1/4=76] | %16
w: |
 [B,G]6 |] %17
w: |
V:2
 [G,DG][G,CD][G,B,D] [G,DG][D,D][G,DG] | [G,B,G]>[G,CG][G,B,G] [G,DG]3 | %2
 [G,B,D][A,CD][G,B,D] [D,D]3 | [D,D][D,D][D,D] [G,D]3 | %4
 [G,D][D,D][K:treble][G,DG] [G,EG][G,DG][G,A,G] | [G,B,G]>[G,CG][G,B,G] [G,DG]3 | %6
 [G,B,D][A,CD][G,B,D] [D,D]3 | [D,D]2 [D,C] [G,B,]3 | [G,B,G][G,B,G][G,B,G] [G,B,G]2 [G,B,G] | %9
 [C,C]>[C,C][C,C][K:treble] [G,B,G]3 | [G,DG][G,DG][G,DG] [G,DG][D,D][G,DG] | %11
[M:9/16] [B,DG][A,DF]/-[A,DF]/[G,DG][K:bass][D,D]3/2 |[M:3/8] A,[K:treble] D2 | %13
[M:3/4] [G,DG][G,DG] [G,DG][G,DG]- [G,DG]/[G,CG]/[K:bass][G,B,] | %14
[M:7/8] [E,C]2 [D,B,] [C,C]3 [C,C] |[M:3/4] [D,B,][D,B,] .[D,B,]2[K:treble] cD, | G,6 |] %17
V:3
 x6 | x6 | x6 | x6 | x6 | x6 | x6 | x6 | x6 | x6 | x6 |[M:9/16] x9/2 |[M:3/8] F- [Fc]2 | %13
[M:3/4] x6 |[M:7/8] x7 |[M:3/4] [Gd][Gd] [Gd] F2 [CFA] | x6 |] %17
V:4
 x6 | x6 | x6 | x6 | x2[K:treble] x4 | x6 | x6 | x6 | x6 | x3[K:treble] x3 | x6 | %11
[M:9/16] x3[K:bass] x3/2 |[M:3/8] D,3[K:treble] |[M:3/4] x5[K:bass] x |[M:7/8] x7 | %15
[M:3/4] z2 z .[D,A,]3[K:treble] | x6 |] %17

